X:1
T:Haweis Fourth
T:A Major         Thomas Haweis, 1791
T:Thomas Haweis, 1791                         86. 86. (C. M.)
T:Transcribed from Carmina Christo, 1791
T:No Copyright.  Transcribed from Suffolk Harmony, 1786.
T:No Copyright.  Transcribed from Suffolk Harmony, 1786.
Z:No Copyright.  Transcribed from Suffolk Harmony, 1786.
%%score [ 1 2 3 4 ]
L:1/8
Q:1/4=100
M:3/4
K:A
V:1 treble nm="Tr." snm="Tr."
V:2 treble nm="C." snm="C."
V:3 treble-8 nm="T." snm="T."
V:4 bass nm="B." snm="B."
V:1
"_1. O thou from whom all goodness flows,    I    lift       my     heart      to     thee;  In     all       my   sor     –     rows,  con–flicts,  woes, Dear Lord, remember  me,  re –" c2 c2 A2 | %1
 B4 B2 | (A2 B2) d2 | c4 A2 | B4 B2 | (B2 c2) B2 | B4 z2 | z6 | z6 | z6 | !fermata!z4 c2 | B4 e2 | %12
 e3/2 d/ c3 B | %13
"_1.–member  me, re – mem–ber  me,     Dear Lord, re–mem  –  ber    me." G3/2 A/ B3 d | %14
 c3/2 d/ e2 z2 | A2 d2 e2 | (d2 c2) B2 | !fermata!c6 |] %18
V:2
"_2. When groaning on my burdened heart   My  sins       lie     hea    –   vi   –  ly,   My   par  – don   speak,       new   peace    im – part;  In  love  re –mem–ber me,  re – \n3. Temptations  sore ob – struct  my  way   And  ills        I       can    –   not   flee;  O    give     me   strength,   Lord   as          my   day,  For good re–mem–ber me,  re –" E2 E2 E2 | %1
 E4 G2 | (A2 F2) G2 | A4 E2 | E4 ^D2 | (E2 F2) ^D2 | E4 E2 | (E2 F2) E2 | (F>B A2) G2 | %9
 (A2 G2) A2 | !fermata!A4 A2 | G4 E2 | E3/2 E/ E3 E | %13
"_2.–member  me, re – mem–ber  me,       In  love  re – mem – ber       me.\n3.–member  me, re – mem–ber  me,      For good re – mem – ber      me." E3/2 E/ E3 E | %14
 E3/2 G/ A2 z2 | F2 G2 E2 | F2 E4 | !fermata!E6 |] %18
V:3
"_4.  If   on  my  face  for   thy    dear  name  Shame  and  re – proa   –  ches   be,   All   hail      re  – proach      and   wel –come shame  If  thou  re –mem–ber  me,  re – \n5. The hour is near, consigned    to  death;  I      own      the   just        de – cree;  Sa  – vior,   with  my             last   par – ting   breath  I'll  cry,  re – mem–ber  me,  re –" E2 A2 c2 | %1
 e4 d2 | (c2 d2) B2 | A4 c2 | (B2 e2) A2 | (G2 A2) F2 | E4 B2 | (c2 B2) A2 | (d2 c2) B2 | %9
 (e2 d2) c2 | !fermata!f4 E2 | d4 B2 | c3/2 B/ A3 A | %13
"_2.–member  me, re – mem–ber  me,        If  thou  re – mem – ber     me.\n3.–member  me, re – mem–ber  me,        I'll   cry,  re – mem – ber     me." d3/2 c/ B3 B | %14
 e3/2 c/ A2 E2 | (F2 d2) c2 | (cB A2) G2 | !fermata!A6 |] %18
V:4
 A,2 A,2 A,2 | G,4 E,2 | (F,2 D,2) E,2 | A,,4 A,2 | G,4 F,2 | (E,2 A,,2) B,,2 | E,4 z2 | z6 | z6 | %9
 z6 | !fermata!z4 C2 | B,4 G,2 | A,3/2 A,,/ A,,3 A, | %13
"____________________________________________________________________________________________________________________________________________________\nThis tune, originally titled \nHymn 4\n by Haweis, has gone under many names, including Aldwinkle, Calvary, Dying Thief, Haweis, Horsheath, Madeley, Mamre, Mount Calvary, \n  Penitence, Remember Me, Richmond, and Salisbury." B,>A, G,3 G, | %14
 A,>A, A,2 C,2 | D,2 B,,2 A,,2 | D,2 E,2 E,2 | !fermata!A,,6 |] %18

